assets/icons/taureau.svg

<svg width="276" height="412" viewBox="0 0 276 412" fill="none" xmlns="http://www.w3.org/2000/svg">
<g clip-path="url(#clip0_149_768)">
<path d="M99.7489 232.523C108.102 229.076 117.668 233.05 121.121 241.4C124.574 249.75 120.607 259.319 112.26 262.778C103.903 266.241 94.3219 262.269 90.8659 253.91C87.4089 245.551 91.3879 235.973 99.7489 232.523Z" fill="#35CD3D"/>
<path d="M66.7008 99.4802C75.4628 97.3682 84.2758 102.766 86.3748 111.531C88.4738 120.296 83.0628 129.101 74.2948 131.187C65.5448 133.268 56.7628 127.871 54.6688 119.124C52.5738 110.378 57.9578 101.588 66.7008 99.4802Z" fill="#F1F1F1"/>
<path d="M16.1638 18.4766C16.7688 18.6876 20.0498 20.0706 20.2798 20.4316C35.5288 44.3676 50.1638 68.9186 64.1858 93.5886C65.8038 96.4356 65.0848 96.4886 63.9678 99.1846C61.6428 98.4966 60.4638 98.2126 59.0848 95.9756C44.3088 72.0096 29.7798 47.7676 15.7018 23.3956C14.4678 21.2596 15.3458 20.5616 16.1638 18.4766Z" fill="#F1F1F1"/>
<path d="M246.328 352.883C264.347 351.513 271.01 367.003 256.315 377.993C238.655 381.293 231.364 364.043 246.328 352.883Z" fill="#F1F1F1"/>
<path d="M163.946 310.312C171.254 311.812 227.046 348.832 236.684 356.332C238.118 357.442 237.427 358.522 237.161 360.872C230.755 360.542 174.436 322.802 165.556 316.102C163.478 314.532 164.003 312.892 163.946 310.312Z" fill="#F1F1F1"/>
<path d="M49.6018 215.163C54.6648 213.847 59.8648 216.755 61.3938 221.757C62.9228 226.76 60.2378 232.079 55.3048 233.818C51.9228 235.011 48.1578 234.253 45.5008 231.845C42.8438 229.436 41.7208 225.764 42.5778 222.281C43.4338 218.798 46.1308 216.065 49.6018 215.163Z" fill="#F1F1F1"/>
<path d="M152.868 295.833C165.661 295.983 168.915 307.723 158.323 315.193C143.474 314.853 139.686 302.673 152.868 295.833Z" fill="#F1F1F1"/>
<path d="M263.447 392.272C268.571 391.102 273.7 394.212 275.017 399.302C276.335 404.392 273.363 409.612 268.312 411.072C264.917 412.052 261.257 411.112 258.755 408.612C256.254 406.112 255.307 402.453 256.283 399.063C257.258 395.663 260.002 393.062 263.447 392.272Z" fill="#F1F1F1"/>
<path d="M6.48786 0.543939C9.91886 -0.657061 13.7339 0.16493 16.3669 2.67193C18.9999 5.17893 20.0059 8.94991 18.9739 12.4359C17.9419 15.9209 15.0449 18.536 11.4709 19.205C6.49287 20.138 1.63586 17.0779 0.32986 12.1849C-0.97714 7.29093 1.70686 2.21694 6.48786 0.543939Z" fill="#F1F1F1"/>
<path d="M85.6048 178.48C88.8868 176.903 92.7758 177.311 95.6598 179.532C98.5438 181.754 99.9298 185.411 99.2428 188.986C98.5558 192.561 95.9138 195.444 92.4118 196.439C87.5978 197.806 82.5388 195.262 80.7658 190.583C78.9918 185.904 81.0948 180.646 85.6048 178.48Z" fill="#F1F1F1"/>
<path d="M117.074 261.551C120.046 261.709 121.961 261.298 124.112 263.952C129.585 270.703 148.055 290.073 148.295 297.873C146.441 297.863 144.443 298.163 143.145 296.633C137.381 289.793 118.548 269.028 117.074 261.551Z" fill="#F1F1F1"/>
<path d="M74.9298 132.242C76.9858 132.508 79.6908 132.639 80.3578 134.864C83.0728 143.914 90.4858 167.971 88.4218 176.547C87.4688 176.169 85.1948 175.208 84.8268 174.411C81.4928 167.198 74.8568 138.509 74.9298 132.242Z" fill="#F1F1F1"/>
<path d="M92.4539 197.272C94.6109 198.163 95.8789 198.214 96.6259 200.938C98.3079 207.068 103.449 224.775 101.519 230.365L98.3679 229.668C94.8049 225.316 89.6779 202.564 92.4539 197.272Z" fill="#F1F1F1"/>
<path d="M61.4878 229.409C68.2378 229.649 80.5528 236.235 86.2588 240.478C88.6048 242.222 87.9018 243.961 87.7088 246.436C82.7528 245.826 68.3298 238.199 63.6598 234.923C61.4278 233.357 61.8638 232.176 61.4878 229.409Z" fill="#F1F1F1"/>
<path d="M255.982 378.183C263 379.983 264.663 384.373 262.865 390.983C256.596 388.833 255.431 384.443 255.982 378.183Z" fill="#F1F1F1"/>
</g>
<defs>
<clipPath id="clip0_149_768">
<rect width="276" height="412" fill="white"/>
</clipPath>
</defs>
</svg>

<svg xmlns="http://www.w3.org/2000/svg" width="276" height="412" fill="none" viewBox="0 0 276 412"><g clip-path="url(#a)"><path fill="#35cd3d" d="M99.749 232.523c8.353-3.447 17.919.527 21.372 8.877s-.514 17.919-8.861 21.378c-8.357 3.463-17.938-.509-21.394-8.868-3.457-8.359.522-17.937 8.883-21.387"/><path fill="#f1f1f1" d="M66.7 99.48c8.763-2.112 17.576 3.286 19.675 12.051s-3.312 17.57-12.08 19.656c-8.75 2.081-17.532-3.316-19.626-12.063S57.958 101.588 66.7 99.48M16.164 18.477c.605.21 3.886 1.594 4.116 1.955 15.249 23.936 29.884 48.487 43.906 73.157 1.618 2.847.899 2.9-.218 5.596-2.325-.688-3.504-.972-4.883-3.21C44.309 72.01 29.78 47.769 15.702 23.396c-1.234-2.135-.356-2.833.462-4.918M246.328 352.883c18.019-1.37 24.682 14.12 9.987 25.11-17.66 3.3-24.951-13.95-9.987-25.11M163.946 310.312c7.308 1.5 63.1 38.52 72.738 46.02 1.434 1.11.743 2.19.477 4.54-6.406-.33-62.725-38.07-71.605-44.77-2.078-1.57-1.553-3.21-1.61-5.79M49.602 215.163a9.762 9.762 0 1 1 4.913 18.897 9.762 9.762 0 0 1-4.913-18.897"/><path fill="#f1f1f1" d="M152.868 295.833c12.793.15 16.047 11.89 5.455 19.36-14.849-.34-18.637-12.52-5.455-19.36M263.447 392.272c5.124-1.17 10.253 1.94 11.57 7.03s-1.654 10.31-6.705 11.77a9.71 9.71 0 0 1-9.557-2.46 9.712 9.712 0 0 1 4.692-16.34M6.488.544a9.686 9.686 0 1 1 6.399 18.285A9.686 9.686 0 0 1 6.487.544M85.605 178.48a9.638 9.638 0 1 1 6.807 17.959 9.638 9.638 0 0 1-6.807-17.959M117.074 261.551c2.972.158 4.887-.253 7.038 2.401 5.473 6.751 23.943 26.121 24.183 33.921-1.854-.01-3.852.29-5.15-1.24-5.764-6.84-24.597-27.605-26.071-35.082M74.93 132.242c2.056.266 4.76.397 5.428 2.622 2.715 9.05 10.128 33.107 8.064 41.683-.953-.378-3.227-1.339-3.595-2.136-3.334-7.213-9.97-35.902-9.897-42.169M92.454 197.272c2.157.891 3.425.942 4.172 3.666 1.682 6.13 6.823 23.837 4.893 29.427l-3.151-.697c-3.563-4.352-8.69-27.104-5.914-32.396M61.488 229.409c6.75.24 19.065 6.826 24.77 11.069 2.347 1.744 1.644 3.483 1.45 5.958-4.955-.61-19.378-8.237-24.048-11.513-2.232-1.566-1.796-2.747-2.172-5.514M255.982 378.183c7.018 1.8 8.681 6.19 6.883 12.8-6.269-2.15-7.434-6.54-6.883-12.8"/></g><defs><clipPath id="a"><path fill="#fff" d="M0 0h276v412H0z"/></clipPath></defs></svg>
